X:258
T:Yorkshire Boy - Fone
%%VWML:SBG-1-2-633-0
F:http://www.vwml.org/record/SBG/1/2/633
Z:Original Sibelius transcriptions by M. & S. Graebe
L:1/8
M:6/8
I:linebreak $
K:Bb
V:1 treble nm="P1"
V:2 treble 
V:1
 de | fgf edc | fdB B2 F | BBB Bdc | cAB c2 c | dcB e2 B | dcB e2 c |$ def gfe | fed c3/2 A/F | %9
 c>Bc/d/ e3 | f2 B PBF z | B2 g gfe | d>Bc B3 | %13
V:2
 x2 | x6 | x6 | x3 dcB | x6 | x6 | x6 |$ x6 | x6 | x6 | x6 | x6 | x6 | %13

